X:1
T:ppelbo gnglt
M:2/4
L:1/16
R:Gnglt
O:Dalarna
S:efter rtbergs Kalle
K:G
D2|G2GD G2B2|d6 Bc|d2dB d2de|c2cB A2AB|
c2cd e2dc|BcBA G2FG|A2AF D2EF|G6:|
|:Bd|g2g2 g2fe|f2f2 f2gf|e2e2 egfe|e2d^c d2=cB|
c2cB A2GA|BcBA G2FG|ABAF D2EF|G6:|
